public/library/onre-text-dark.svg

<svg xmlns="http://www.w3.org/2000/svg" width="5605" height="2000" fill="none" viewBox="0 0 5605 2000"><path fill="#fff" fill-rule="evenodd" d="M979.064 500h255.586c276.13 0 500 223.869 500 500s-223.87 500-500 500H979.064c-276.13 0-499.999-223.87-499.999-500s223.869-500 499.999-500m23.136 459.178c-27.036 165.102 113.63 306.032 279 278.992 100.1-16.64 180.96-97.24 197.34-197.35 27.04-165.105-113.62-306.031-278.99-278.99-100.1 16.641-180.96 97.244-197.35 197.348M2076.33 500h-219.44c-20.54 0-37.18 16.641-36.92 36.921v926.159c0 20.28 16.38 36.92 36.92 36.92h218.14c20.29 0 36.93-16.38 36.93-36.92v-362.72c0-17.42 0-58.24-1.56-95.94l7.28-2.86c2.23 3.16 4.47 6.35 6.73 9.58v.01c18.63 26.54 39.03 55.6 68.93 89.21l339.31 387.16c7.02 7.8 17.16 12.48 27.82 12.48h218.15c20.28 0 36.92-16.38 36.92-36.92V536.921c0-20.28-16.64-36.921-37.18-36.921h-218.15c-20.28 0-36.92 16.641-36.92 36.921v322.16c0 27.564 0 87.101 1.56 140.919l-7.28 2.86c-24.7-34.841-87.1-114.664-113.36-143.786l-300.05-346.333C2097.14 504.68 2087 500 2076.33 500m1157.79 0c-20.28 0-36.92 16.641-36.92 36.921h.52v926.159c0 20.28 16.38 36.92 36.92 36.92h247.27c20.28 0 36.92-16.38 36.92-36.92v-298.75h158.35l142.74 314.09c5.98 13 18.98 21.58 33.54 21.58h276.65c27.57 0 45.51-28.86 33.03-53.56l-154.45-306.55c-8.32-16.12-3.64-35.89 11.18-46.29 86.58-61.1 140.93-157.303 140.93-273.787C4160.8 651.066 4046.13 500 3823.56 500zm599.84 332.813c0 65.263-40.82 108.945-90.22 108.945v.26h-225.17V728.289h225.17c50.96 0 90.22 44.982 90.22 104.524M4287.92 500h790.95c20.54 0 36.92 16.641 36.92 36.921v165.887c0 20.541-16.64 36.922-36.92 36.922h-506.76v138.065h428.24c20.54 0 36.92 16.641 36.92 36.922v155.743c0 20.54-16.64 36.92-36.92 36.92h-428.24v152.63h516.9c20.54 0 36.92 16.64 36.92 36.92v165.89c0 20.54-16.64 36.92-36.92 36.92h-801.09c-20.54 0-36.92-16.64-36.92-36.92V536.921c0-20.28 16.64-36.921 36.92-36.921" clip-rule="evenodd"/></svg>

<svg width="5605" height="2000" viewBox="0 0 5605 2000" fill="none" xmlns="http://www.w3.org/2000/svg">
<path fill-rule="evenodd" clip-rule="evenodd" d="M979.064 500H1234.65C1510.78 500 1734.65 723.869 1734.65 1000C1734.65 1276.13 1510.78 1500 1234.65 1500H979.064C702.934 1500 479.065 1276.13 479.065 1000C479.065 723.869 702.934 500 979.064 500ZM1002.2 959.178C975.164 1124.28 1115.83 1265.21 1281.2 1238.17C1381.3 1221.53 1462.16 1140.93 1478.54 1040.82C1505.58 875.715 1364.92 734.789 1199.55 761.83C1099.45 778.471 1018.59 859.074 1002.2 959.178ZM2076.33 500H1856.89C1836.35 500 1819.71 516.641 1819.97 536.921V1463.08C1819.97 1483.36 1836.35 1500 1856.89 1500H2075.03C2095.32 1500 2111.96 1483.62 2111.96 1463.08V1100.36V1100.36C2111.96 1082.94 2111.96 1042.12 2110.4 1004.42L2117.68 1001.56C2119.91 1004.72 2122.15 1007.91 2124.41 1011.14L2124.41 1011.15C2143.04 1037.69 2163.44 1066.75 2193.34 1100.36L2532.65 1487.52C2539.67 1495.32 2549.81 1500 2560.47 1500H2778.62C2798.9 1500 2815.54 1483.62 2815.54 1463.08V536.921C2815.54 516.641 2798.9 500 2778.36 500H2560.21C2539.93 500 2523.29 516.641 2523.29 536.921V859.074V859.081C2523.29 886.645 2523.29 946.182 2524.85 1000L2517.57 1002.86C2492.87 968.019 2430.47 888.196 2404.21 859.074L2104.16 512.741C2097.14 504.68 2087 500 2076.33 500ZM3234.12 500C3213.84 500 3197.2 516.641 3197.2 536.921H3197.72V1463.08C3197.72 1483.36 3214.1 1500 3234.64 1500H3481.91C3502.19 1500 3518.83 1483.62 3518.83 1463.08V1164.33H3677.18L3819.92 1478.42C3825.9 1491.42 3838.9 1500 3853.46 1500H4130.11C4157.68 1500 4175.62 1471.14 4163.14 1446.44L4008.69 1139.89C4000.37 1123.77 4005.05 1104 4019.87 1093.6C4106.45 1032.5 4160.8 936.297 4160.8 819.813C4160.8 651.066 4046.13 500 3823.56 500H3234.12ZM3833.96 832.813C3833.96 898.076 3793.14 941.758 3743.74 941.758V942.018H3518.57V728.289H3743.74C3794.7 728.289 3833.96 773.271 3833.96 832.813ZM4287.92 500H5078.87C5099.41 500 5115.79 516.641 5115.79 536.921V702.808C5115.79 723.349 5099.15 739.73 5078.87 739.73H4572.11V877.795H5000.35C5020.89 877.795 5037.27 894.436 5037.27 914.717V1070.46C5037.27 1091 5020.63 1107.38 5000.35 1107.38H4572.11V1260.01H5089.01C5109.55 1260.01 5125.93 1276.65 5125.93 1296.93V1462.82C5125.93 1483.36 5109.29 1499.74 5089.01 1499.74H4287.92C4267.38 1499.74 4251 1483.1 4251 1462.82V536.921C4251 516.641 4267.64 500 4287.92 500Z" fill="white"/>
</svg>
